X:1
T:Title
%%score ( 1 2 ) { 3 | ( 4 5 ) }
L:1/8
Q:1/4=55
M:2/4
K:E
V:1 treble nm="Voice"
V:2 treble 
V:3 treble nm="Pianoforte."
V:4 bass 
V:5 bass 
V:1
"^Sehr langsam." z | z4 | z2 z!mp! G | G A G F | (GB,) z G | G A G F | G2 z G |!<(! G c!<)! ^B ^A | %8
 ^B G z!p! B | ^B ^^c B ^A | ^B2 z2 | z4 | z4 | z2 z!mp! d |!<(! d c B ^A!<)! | B2 z B | %16
!<(! B A G!<)! A | G2 z!p! G |"^cresc." G A G ^^F |!<(! (G^B)!<)! z!mp! d |!<(! d ^B ^A!<)! B | %21
!mf!!<(! ^B2 z!<)!!mf! G |!<(! G ^^F ^A G!<)! |!f! c2 z ^A |!<(! ^A ^^F!<)!!f! G ^B | ^A2 z d | %26
!>(! c c ^B ^A!>)! |!p! ^B G z d |!<(! c c!<)! ^B!>(! ^A | ^B2!>)! z!p! G |"^cresc." G c B ^A | %31
!mf! (c^B) z!mf! B | c e d ^B |!<(! c2 z ^A | ^A ^^F G ^B!<)! |!f! (^AG) G2 | !fermata!z |] %37
V:2
 x | x4 | x4 | x4 | x4 | x4 | x4 | x4 | x4 | x4 | x4 | x4 | x4 | x4 | x4 | x4 | x4 | x4 | x4 | x4 | %20
 x4 | x4 | x4 | x4 | x4 | x4 | x4 | x4 | x4 | x4 | x2 x G | c ^B x2 | x4 | x3 ^A | ^A ^^F G x | %35
 x4 | x |] %37
V:3
"^Lento" ([G,B,EG] | [G,B,EG][A,CEA][G,B,EG][F,A,DF] | [G,B,E]2) z!mp! ([B,EG] | %3
 [B,EG][CEA][B,EG][A,DF] | [G,B,E]2) z ([G,EG] | [G,EG][CEA][B,EG][A,B,F] | [B,EG]2) z!p! ([G,EG] | %7
 [G,EG][EGc][DG^B][C^^F^A] | [DG^B][^B,DG]) z!p! [DGB] | [DG^B][^EG^^c][DGB][^^CG^A] | %10
 [DG^B]2 z!p! [DGBd] |!<(! ([D^^F^Ad][DG^Bd][^^CGA^^c][DFAd] | %12
 [DG^Bd][^EGB^e][^^F^Ad^^f][FAdf]!<)! |!>(! [G^Bdg]3)!>)!!mp! ([DGBd] | %14
!<(! [DGBd][EG^Ac][DGB][CGA]!<)! |!mp! [B,GB]2) z!p! ([B,GB] |!<(! [B,FB][B,EA][B,EG][B,FA]!<)! | %17
!>(! [B,EG]2) z!>)!!p! ([G,EG] |"_cresc." [G,EG][CEA][^B,DG][A,D^^F] | %19
!<(! [G,DG])!<)!!mf![^B,DG^B] z!mp! ([DGBd] |!<(! [DG^Bd][DGB][D^^F^A]!<)![DFB] | %21
!mf!!<(! [^B,G^B]2) z!<)!!mf! ([B,DG] |!<(! [^B,DG][B,D^^F][^A,DF][B,DG]!<)! | %23
!f! [CEGc]2) z ([D^^F^A] |!<(! [D^^F^A][^A,DF]!<)!!f![^B,DG][DG^B] | [D^^F^A]2) z!p! ([F^Bd] | %26
!>(! [^E^Ac][EAc][DG^B][C^^FA]!>)! |!p! [DG^B][^B,DG]) z ([DGB] | %28
!<(! [^E^Ac][EAc]!<)!!>(![DG^B][C^^FA]!>)! |!p! [^B,G^B]2) z!p! ([B,DG] | %30
"_cresc." [CEG][EGc][DGB][CG^A] |!mf! [DGc][DG^B]) z!mf! ([DGB] | [EGc][E^Ae][F^Bd][DGB] | %33
!<(! [EGc]2) z ([D^^F^A] | [D^^F^A][^A,DF][DG^B][DGB]!<)! | %35
!f!!>(! [D^^F^A][CDG]!>)!!mp! [^B,DG]2) | !fermata![G,B,EG] |] %37
V:4
 (E,, | E,,A,,B,,B,,, | E,,2) z (E,, | E,,A,,B,,B,,, | E,,2) z (C, | C,A,,B,,B,,, | E,,2) z (C, | %7
 C,C,D,D,, | G,,2) z (G, | G,^E,D,D,, | G,,2) z (G, | D,G,,^E,D, | G,C,D,D,, | G,,3) (G, | %14
 G,C,D,D,, | G,,2) z (G, | G,C,B,,B,,, | E,,2) z (C, | C,A,,F,,D,, | G,,G,) z (G, | G,G,,D,D,, | %21
 G,,2) z (G, | G,D,D,,G,, | C,2) z (D, | D,D,,G,,G, | D,2) z (G, | G,C,D,D,, | G,,G,) z (G, | %28
 G,C,D,D,, | G,,2) z (G, | G,C,D,D,, | G,,G,) z (G, | C,^A,,D,G,, | C,2) z (D, | D,D,,G,,G, | %35
 D,D,, G,,2) | !fermata![E,,,E,,] |] %37
V:5
 x | x4 | x4 | x4 | x4 | x4 | x4 | x4 | x4 | x4 | x4 | x4 | x4 | x4 | x4 | x4 | x4 | x4 | x4 | x4 | %20
 x4 | x4 | x4 | x4 | x4 | x4 | x4 | x4 | x4 | x4 | x4 | x4 | x4 | x4 | x4 | D,2 G,,2 | x |] %37

